X: 21921
T: MRS. TULLOCH'S JIG
R: jig
B: K\"ohler's Violin Repository, v.2, 1885 p.192 #1
F: http://www.archive.org/details/klersviolinrepos02rugg
Z: 2012 John Chambers <jc:trillian.mit.edu>
N: Added missing time signature.
M: 6/8
L: 1/8
K: Amix
uf |\
(e2A) (c2A) | (c/d/)eA (c2A) | dBG GBd | gdB (.G2.f) |\
(e2A) (c2A) | (cd)eA (c2A) | ece eca ecA A2 :|
|: ue |\
Ace aeg | fdf edc | (B/c/)dA GBd | gdB (G2B) |\
Ace aeg | fdf ecA | (c/d/)eA eca | ecA (.A2.e) |
Ace aeg | fdf edc | (B/c/)dB GBd | gdB (.G2.f) |\
(e2A) (c2A) | (c/d/)eA (c2A) | ece eca | ecA A2 :|

%%sep 2 1 500

